dist/img/icons/viber.svg

<svg width="27" height="28" viewBox="0 0 27 28" fill="none" xmlns="http://www.w3.org/2000/svg">
<g clip-path="url(#clip0_34_90)">
<path d="M27 14.5V13.5C27 6.04416 20.9558 0 13.5 0C6.04416 0 0 6.04416 0 13.5V14.5C0 21.9558 6.04416 28 13.5 28C20.9558 28 27 21.9558 27 14.5Z" fill="#7D3DAF"/>
<path d="M21.1235 9.98643L21.1189 9.96729C20.7457 8.4027 19.0632 6.72381 17.5181 6.37453L17.5006 6.37081C15.0015 5.8764 12.4675 5.8764 9.96889 6.37081L9.95094 6.37453C8.40635 6.72381 6.72385 8.4027 6.35014 9.96729L6.34603 9.98643C5.88466 12.1714 5.88466 14.3873 6.34603 16.5723L6.35014 16.5914C6.70791 18.0892 8.26512 19.691 9.75255 20.1315V21.878C9.75255 22.5101 10.4954 22.8206 10.9178 22.3644L12.6241 20.525C12.9942 20.5465 13.3645 20.5585 13.7348 20.5585C14.9928 20.5585 16.2513 20.4351 17.5006 20.1879L17.5181 20.1842C19.0632 19.8349 20.7457 18.156 21.1189 16.5915L21.1235 16.5723C21.5849 14.3873 21.5849 12.1714 21.1235 9.98643ZM19.7732 16.2554C19.524 17.2761 18.2465 18.5451 17.2315 18.7796C15.9027 19.0416 14.5633 19.1536 13.2254 19.1152C13.1987 19.1145 13.1732 19.1251 13.1546 19.1449C12.9647 19.3471 11.9087 20.4712 11.9087 20.4712L10.5835 21.8817C10.4867 21.9864 10.3165 21.9151 10.3165 21.7705V18.8773C10.3165 18.8295 10.2835 18.7889 10.2383 18.7797C10.238 18.7796 10.2378 18.7796 10.2375 18.7795C9.22248 18.5451 7.94548 17.2761 7.69582 16.2554C7.28058 14.2804 7.28058 12.2782 7.69582 10.3032C7.94548 9.2825 9.22248 8.0135 10.2375 7.77905C12.5582 7.32131 14.9113 7.32131 17.2315 7.77905C18.2471 8.0135 19.524 9.2825 19.7732 10.3032C20.1889 12.2783 20.1889 14.2804 19.7732 16.2554Z" fill="white"/>
<path d="M15.9427 17.5909C15.7867 17.5418 15.638 17.5088 15.4999 17.4493C14.0688 16.8336 12.7517 16.0392 11.7084 14.8215C11.1151 14.1291 10.6508 13.3473 10.2582 12.52C10.0721 12.1277 9.91523 11.72 9.75534 11.3149C9.60954 10.9455 9.82429 10.5639 10.0504 10.2856C10.2626 10.0244 10.5356 9.82454 10.8313 9.67722C11.0621 9.56223 11.2898 9.62853 11.4583 9.8314C11.8227 10.27 12.1574 10.731 12.4285 11.2394C12.5951 11.5521 12.5494 11.9344 12.2474 12.1472C12.1739 12.1989 12.107 12.2596 12.0387 12.318C11.9787 12.3692 11.9222 12.421 11.8811 12.4903C11.806 12.6171 11.8024 12.7667 11.8508 12.9046C12.2233 13.9662 12.8511 14.7917 13.8814 15.2363C14.0463 15.3074 14.2119 15.3902 14.4018 15.3673C14.7199 15.3287 14.8229 14.9669 15.0458 14.7778C15.2636 14.5931 15.5421 14.5907 15.7768 14.7447C16.0115 14.8987 16.2391 15.0641 16.4652 15.2313C16.6873 15.3953 16.9083 15.5558 17.1131 15.7429C17.31 15.9227 17.3778 16.1586 17.267 16.4027C17.0639 16.8497 16.7686 17.2216 16.3425 17.459C16.2221 17.5259 16.0784 17.5476 15.9427 17.5909C16.0784 17.5476 15.7867 17.5417 15.9427 17.5909Z" fill="white"/>
<path d="M13.7386 9.16612C15.6105 9.22051 17.148 10.5088 17.4775 12.428C17.5336 12.755 17.5536 13.0893 17.5786 13.4212C17.5891 13.5608 17.5128 13.6935 17.3676 13.6953C17.2175 13.6972 17.15 13.567 17.1403 13.4274C17.121 13.1512 17.1076 12.8737 17.0709 12.5998C16.8771 11.1537 15.7652 9.95729 14.3772 9.70057C14.1684 9.66192 13.9546 9.65177 13.743 9.62875C13.6093 9.61418 13.4341 9.60578 13.4045 9.43337C13.3796 9.28882 13.4973 9.17372 13.63 9.16633C13.6661 9.16426 13.7024 9.16596 13.7386 9.16612C15.6105 9.22051 13.7024 9.16596 13.7386 9.16612Z" fill="white"/>
<path d="M16.5834 12.9905C16.5803 13.0147 16.5787 13.0717 16.565 13.1254C16.5153 13.3203 16.2304 13.3447 16.1648 13.148C16.1454 13.0896 16.1424 13.0232 16.1423 12.9604C16.1417 12.5492 16.0555 12.1385 15.8556 11.7807C15.65 11.4131 15.3361 11.104 14.9678 10.9169C14.7451 10.8039 14.5042 10.7336 14.2602 10.6917C14.1535 10.6734 14.0457 10.6623 13.9385 10.6468C13.8086 10.6281 13.7392 10.5422 13.7454 10.4095C13.7511 10.2851 13.8388 10.1956 13.9695 10.2033C14.3991 10.2286 14.814 10.3249 15.1959 10.5346C15.9726 10.9611 16.4162 11.6344 16.5457 12.5334C16.5516 12.5741 16.561 12.6144 16.564 12.6553C16.5713 12.7563 16.5759 12.8573 16.5834 12.9905C16.5803 13.0147 16.5759 12.8573 16.5834 12.9905Z" fill="white"/>
<path d="M15.4191 12.9435C15.2625 12.9464 15.1787 12.8565 15.1625 12.7076C15.1513 12.6037 15.1424 12.4985 15.1185 12.3975C15.0715 12.1986 14.9695 12.0142 14.8081 11.8923C14.732 11.8347 14.6456 11.7928 14.5552 11.7657C14.4403 11.7313 14.321 11.7408 14.2064 11.7117C14.0819 11.68 14.0131 11.5755 14.0327 11.4544C14.0504 11.3442 14.1538 11.2582 14.27 11.2669C14.9957 11.3212 15.5144 11.7103 15.5884 12.5964C15.5937 12.6589 15.5998 12.725 15.5864 12.7848C15.5635 12.8872 15.4904 12.9385 15.4191 12.9435C15.4904 12.9385 15.2625 12.9464 15.4191 12.9435Z" fill="white"/>
</g>
<defs>
<clipPath id="clip0_34_90">
<rect width="27" height="28" fill="white"/>
</clipPath>
</defs>
</svg>

<svg width="27" height="28" fill="none" xmlns="http://www.w3.org/2000/svg"><g clip-path="url(#clip0_34_90)"><path d="M27 14.5v-1C27 6.044 20.956 0 13.5 0S0 6.044 0 13.5v1C0 21.956 6.044 28 13.5 28S27 21.956 27 14.5z" fill="#7D3DAF"/><path d="M21.123 9.986l-.004-.019c-.373-1.564-2.056-3.243-3.6-3.592L17.5 6.37a19.308 19.308 0 00-7.532 0l-.018.004c-1.545.349-3.227 2.028-3.6 3.592l-.005.02a15.841 15.841 0 000 6.585l.004.02c.358 1.497 1.915 3.099 3.403 3.54v1.746c0 .632.742.943 1.165.486l1.706-1.839a19.151 19.151 0 004.877-.337l.017-.004c1.545-.35 3.228-2.028 3.6-3.593l.006-.019a15.84 15.84 0 000-6.586zm-1.35 6.27c-.249 1.02-1.526 2.29-2.541 2.524a18.007 18.007 0 01-4.007.335.093.093 0 00-.07.03l-1.246 1.326-1.325 1.41c-.097.105-.268.034-.268-.11v-2.894a.099.099 0 00-.078-.097c-1.016-.235-2.293-1.504-2.542-2.525a14.376 14.376 0 010-5.952c.25-1.02 1.526-2.29 2.542-2.524a17.982 17.982 0 016.994 0c1.015.235 2.292 1.504 2.541 2.524a14.36 14.36 0 010 5.952z" fill="#fff"/><path d="M15.943 17.59c-.156-.048-.305-.081-.443-.14-1.431-.616-2.748-1.41-3.792-2.628-.593-.693-1.057-1.475-1.45-2.302-.186-.392-.343-.8-.503-1.205-.145-.37.07-.751.295-1.03a2.34 2.34 0 01.781-.608c.231-.115.459-.048.627.154.365.439.7.9.97 1.408.167.313.121.695-.18.908-.074.052-.141.113-.21.171a.7.7 0 00-.157.172.487.487 0 00-.03.415c.372 1.061 1 1.887 2.03 2.331.165.071.33.154.52.131.319-.038.422-.4.645-.59.218-.184.496-.186.73-.032.236.154.463.32.69.486.221.164.442.325.647.512.197.18.265.416.154.66-.203.447-.498.819-.924 1.056-.12.067-.265.089-.4.132.135-.043-.156-.05 0 0zm-2.204-8.424c1.871.055 3.409 1.343 3.738 3.262.057.327.077.661.102.993.01.14-.066.273-.211.274-.15.002-.218-.128-.228-.268-.019-.276-.032-.553-.07-.827-.193-1.446-1.305-2.643-2.693-2.9-.209-.038-.422-.048-.634-.071-.134-.015-.309-.023-.338-.196-.025-.144.092-.26.225-.267.036-.002.072 0 .109 0 1.871.055-.037 0 0 0z" fill="#fff"/><path d="M16.583 12.99c-.003.025-.004.082-.018.135-.05.195-.335.22-.4.023a.608.608 0 01-.023-.188 2.42 2.42 0 00-.286-1.18 2.152 2.152 0 00-.888-.863 2.49 2.49 0 00-.708-.225c-.107-.019-.214-.03-.322-.045-.13-.019-.199-.105-.193-.238.006-.124.094-.213.225-.206.43.026.844.122 1.226.332.777.426 1.22 1.1 1.35 1.998.006.041.015.081.018.122l.02.336c-.004.024-.008-.134 0 0z" fill="#fff"/><path d="M15.42 12.944c-.158.002-.241-.088-.258-.236-.01-.104-.02-.21-.044-.31a.876.876 0 00-.31-.506.798.798 0 00-.253-.126c-.115-.035-.234-.025-.349-.054-.124-.032-.193-.136-.173-.258a.226.226 0 01.237-.187c.726.054 1.244.443 1.318 1.33a.592.592 0 01-.002.188c-.023.102-.096.153-.167.159.071-.006-.157.002 0 0z" fill="#fff"/></g><defs><clipPath id="clip0_34_90"><path fill="#fff" d="M0 0h27v28H0z"/></clipPath></defs></svg>
